src/images/stack-node.svg

<svg xmlns="http://www.w3.org/2000/svg" width="179" height="179" fill="none" viewBox="0 0 179 179"><rect width="179" height="179" fill="#fff"/><path fill="#454545" fill-rule="evenodd" stroke="#454545" stroke-linecap="round" stroke-linejoin="round" stroke-width="1.14" d="M18.61 97.76L18.22 72.76L32.86 63.7L49.14 72.5599L49.45 96.8099L37.79 91.2899C38.0425 87.6719 38.0726 84.0417 37.88 80.4199C37.4 76.1699 29.01 76.7199 28.88 80.8699C28.78 83.5399 29.18 90.76 29.18 90.76L18.61 97.76Z" clip-rule="evenodd"/><path fill="#85BD5B" fill-rule="evenodd" stroke="#85BD5B" stroke-linecap="round" stroke-linejoin="round" stroke-width="1.14" d="M55.4099 73.11V91.66L72.1899 99.3401L86.19 90.1501L86 72.8401L70.5399 63.5601L55.4099 73.11Z" clip-rule="evenodd"/><path fill="#454545" fill-rule="evenodd" stroke="#454545" stroke-linecap="round" stroke-linejoin="round" stroke-width="1.14" d="M113.21 42.8101L112.65 65.16L107.32 62.54L94.12 71.2101L94.68 91.3301L108.28 99.6801L124.42 89.9001L124.82 48.3801L113.21 42.8101ZM108.75 74.7101C109.942 74.6863 111.113 75.0178 112.115 75.6624C113.118 76.307 113.906 77.2355 114.378 78.3296C114.851 79.4236 114.987 80.6336 114.769 81.8053C114.551 82.977 113.989 84.0573 113.155 84.9085C112.321 85.7596 111.252 86.3431 110.085 86.5845C108.918 86.8259 107.706 86.7143 106.602 86.2639C105.499 85.8135 104.555 85.0447 103.89 84.0556C103.225 83.0665 102.87 81.9018 102.87 80.7101C102.859 79.9293 103.003 79.1542 103.294 78.4293C103.584 77.7044 104.015 77.044 104.561 76.4863C105.108 75.9286 105.759 75.4846 106.478 75.1798C107.197 74.8749 107.969 74.7153 108.75 74.7101Z" clip-rule="evenodd"/><path fill="#454545" fill-rule="evenodd" stroke="#454545" stroke-linecap="round" stroke-linejoin="round" stroke-width="1.14" d="M145.43 98.1099L129.75 89.7599L129.89 71.8499L146.08 61.9199L160.46 69.6899L160.68 77.53L150.97 82.8599L149.53 75.6599C147.669 74.8742 145.638 74.5782 143.63 74.7999C140.36 75.1999 139.17 79.66 141.83 83.65C144.49 87.64 154.28 90.77 154.28 90.77L145.43 98.1099Z" clip-rule="evenodd"/><path fill="#85BD5B" fill-rule="evenodd" stroke="#85BD5B" stroke-linecap="round" stroke-linejoin="round" stroke-width="1.14" d="M144.89 81.0001C144.89 80.8335 144.939 80.6707 145.032 80.5324C145.125 80.394 145.257 80.2864 145.411 80.2231C145.565 80.1599 145.734 80.1438 145.898 80.177C146.061 80.2103 146.21 80.2913 146.327 80.4098C146.445 80.5282 146.524 80.6789 146.555 80.8424C146.586 81.006 146.568 81.1752 146.503 81.3285C146.438 81.4818 146.329 81.6123 146.189 81.7034C146.05 81.7945 145.886 81.8421 145.72 81.8401C145.61 81.8401 145.501 81.8183 145.4 81.776C145.299 81.7336 145.207 81.6716 145.129 81.5935C145.052 81.5154 144.991 81.4226 144.95 81.3208C144.909 81.2189 144.889 81.1099 144.89 81.0001Z" clip-rule="evenodd"/><path stroke="#85BD5B" stroke-linecap="round" stroke-linejoin="round" d="M83.5 107.92C83.5 107.92 83.5 122.22 83.06 122.92C80.06 127.8 74.59 122.73 74.59 122.73L74.66 106.17L88.73 97.8L102.09 105.59L102.53 123.73L87.17 131.07L84.32 129.07"/><path stroke="#85BD5B" stroke-linecap="round" stroke-linejoin="round" d="M97.55 110.18C97.55 110.18 95.39 106.26 93.2 106.67C87.5 107.74 87.26 111.8 89.59 113.46C91.92 115.12 99.1 113.04 98.2 117.61C97.48 121.27 88.27 119.82 88.27 119.82L87.8 117.31"/><path fill-rule="evenodd" stroke="#85BD5B" stroke-linecap="round" stroke-linejoin="round" d="M107.75 105.69C107.778 105.382 107.92 105.095 108.148 104.886C108.377 104.677 108.675 104.561 108.985 104.561C109.295 104.561 109.593 104.677 109.822 104.886C110.05 105.095 110.192 105.382 110.22 105.69C110.192 105.998 110.05 106.285 109.822 106.494C109.593 106.703 109.295 106.819 108.985 106.819C108.675 106.819 108.377 106.703 108.148 106.494C107.92 106.285 107.778 105.998 107.75 105.69Z" clip-rule="evenodd"/></svg>

<svg fill="none" viewBox="0 0 179 179"><path fill="#fff" d="M0 0h179v179H0z"/><path fill="#454545" fill-rule="evenodd" stroke="#454545" stroke-linecap="round" stroke-linejoin="round" stroke-width="1.14" d="M18.61 97.76l-.39-25 14.64-9.06 16.28 8.86.31 24.25-11.66-5.52c.252-3.618.283-7.248.09-10.87-.48-4.25-8.87-3.7-9 .45-.1 2.67.3 9.89.3 9.89l-10.57 7z" clip-rule="evenodd"/><path fill="#85BD5B" fill-rule="evenodd" stroke="#85BD5B" stroke-linecap="round" stroke-linejoin="round" stroke-width="1.14" d="M55.41 73.11v18.55l16.78 7.68 14-9.19L86 72.84l-15.46-9.28-15.13 9.55z" clip-rule="evenodd"/><path fill="#454545" fill-rule="evenodd" stroke="#454545" stroke-linecap="round" stroke-linejoin="round" stroke-width="1.14" d="M113.21 42.81l-.56 22.35-5.33-2.62-13.2 8.67.56 20.12 13.6 8.35 16.14-9.78.4-41.52-11.61-5.57zm-4.46 31.9a5.997 5.997 0 015.628 3.62 5.995 5.995 0 01-1.223 6.579 6 6 0 01-10.285-4.199 5.923 5.923 0 013.608-5.53 5.92 5.92 0 012.272-.47zm36.68 23.4l-15.68-8.35.14-17.91 16.19-9.93 14.38 7.77.22 7.84-9.71 5.33-1.44-7.2a11.83 11.83 0 00-5.9-.86c-3.27.4-4.46 4.86-1.8 8.85 2.66 3.99 12.45 7.12 12.45 7.12l-8.85 7.34z" clip-rule="evenodd"/><path fill="#85BD5B" fill-rule="evenodd" stroke="#85BD5B" stroke-linecap="round" stroke-linejoin="round" stroke-width="1.14" d="M144.89 81a.837.837 0 011.008-.823.838.838 0 01.605 1.151.836.836 0 01-.783.512.83.83 0 01-.83-.84z" clip-rule="evenodd"/><path stroke="#85BD5B" stroke-linecap="round" stroke-linejoin="round" d="M83.5 107.92s0 14.3-.44 15c-3 4.88-8.47-.19-8.47-.19l.07-16.56 14.07-8.37 13.36 7.79.44 18.14-15.36 7.34-2.85-2"/><path stroke="#85BD5B" stroke-linecap="round" stroke-linejoin="round" d="M97.55 110.18s-2.16-3.92-4.35-3.51c-5.7 1.07-5.94 5.13-3.61 6.79 2.33 1.66 9.51-.42 8.61 4.15-.72 3.66-9.93 2.21-9.93 2.21l-.47-2.51"/><path stroke="#85BD5B" stroke-linecap="round" stroke-linejoin="round" d="M107.75 105.69a1.244 1.244 0 011.235-1.129 1.24 1.24 0 011.235 1.129 1.244 1.244 0 01-1.235 1.129 1.24 1.24 0 01-1.235-1.129z" clip-rule="evenodd"/></svg>
